img/search.svg

<svg width="20" height="20" viewBox="0 0 20 20" fill="none" xmlns="http://www.w3.org/2000/svg">
<g opacity="0.4">
<mask id="mask0_2090_5350" style="mask-type:alpha" maskUnits="userSpaceOnUse" x="1" y="1" width="17" height="17">
<path fill-rule="evenodd" clip-rule="evenodd" d="M1.66663 1.66663H17.8973V17.8975H1.66663V1.66663Z" fill="white"/>
</mask>
<g mask="url(#mask0_2090_5350)">
<path fill-rule="evenodd" clip-rule="evenodd" d="M9.78234 2.91663C5.9965 2.91663 2.9165 5.99579 2.9165 9.78163C2.9165 13.5675 5.9965 16.6475 9.78234 16.6475C13.5673 16.6475 16.6473 13.5675 16.6473 9.78163C16.6473 5.99579 13.5673 2.91663 9.78234 2.91663M9.78234 17.8975C5.30734 17.8975 1.6665 14.2566 1.6665 9.78163C1.6665 5.30663 5.30734 1.66663 9.78234 1.66663C14.2573 1.66663 17.8973 5.30663 17.8973 9.78163C17.8973 14.2566 14.2573 17.8975 9.78234 17.8975" fill="white"/>
</g>
<mask id="mask1_2090_5350" style="mask-type:alpha" maskUnits="userSpaceOnUse" x="14" y="14" width="5" height="5">
<path fill-rule="evenodd" clip-rule="evenodd" d="M14.3666 14.7557H18.5533V18.9347H14.3666V14.7557Z" fill="white"/>
</mask>
<g mask="url(#mask1_2090_5350)">
<path fill-rule="evenodd" clip-rule="evenodd" d="M17.9285 18.9347C17.7693 18.9347 17.6093 18.8739 17.4868 18.7522L14.5501 15.8239C14.306 15.5797 14.3051 15.1839 14.5493 14.9397C14.7926 14.6939 15.1885 14.6955 15.4335 14.938L18.3701 17.8672C18.6143 18.1114 18.6151 18.5064 18.371 18.7505C18.2493 18.8739 18.0885 18.9347 17.9285 18.9347Z" fill="white"/>
</g>
</g>
</svg>

<svg width="20" height="20" viewBox="0 0 20 20" fill="none" xmlns="http://www.w3.org/2000/svg"><g opacity=".4"><mask id="a" style="mask-type:alpha" maskUnits="userSpaceOnUse" x="1" y="1" width="17" height="17"><path fill-rule="evenodd" clip-rule="evenodd" d="M1.667 1.667h16.23v16.23H1.667V1.668z" fill="#fff"/></mask><g mask="url(#a)"><path fill-rule="evenodd" clip-rule="evenodd" d="M9.782 2.917a6.873 6.873 0 0 0-6.865 6.865 6.874 6.874 0 0 0 6.865 6.866 6.873 6.873 0 0 0 6.865-6.866 6.873 6.873 0 0 0-6.865-6.865m0 14.98c-4.475 0-8.115-3.64-8.115-8.115s3.64-8.115 8.115-8.115 8.115 3.64 8.115 8.115-3.64 8.116-8.115 8.116" fill="#fff"/></g><mask id="b" style="mask-type:alpha" maskUnits="userSpaceOnUse" x="14" y="14" width="5" height="5"><path fill-rule="evenodd" clip-rule="evenodd" d="M14.367 14.756h4.186v4.179h-4.186v-4.18z" fill="#fff"/></mask><g mask="url(#b)"><path fill-rule="evenodd" clip-rule="evenodd" d="M17.928 18.935a.623.623 0 0 1-.441-.183l-2.937-2.928a.625.625 0 0 1 .883-.886l2.937 2.93a.624.624 0 0 1-.442 1.067z" fill="#fff"/></g></g></svg>
